img/Location-Icon.svg

<svg width="70" height="70" viewBox="0 0 70 70" fill="none" xmlns="http://www.w3.org/2000/svg">
<path fill-rule="evenodd" clip-rule="evenodd" d="M35 5.83334C46.2758 5.83334 55.4166 14.9742 55.4166 26.25C55.4166 29.6593 54.5834 32.8717 53.1039 35.6983L35 67.0833L17.3154 36.4595C15.575 33.4542 14.5833 29.9693 14.5833 26.25C14.5833 14.9742 23.7242 5.83334 35 5.83334ZM35 11.6667C26.9458 11.6667 20.4166 18.1959 20.4166 26.25C20.4166 28.566 20.9509 30.7882 21.962 32.7943L22.452 33.6893L35 55.4167L47.6366 33.5362C48.9071 31.3423 49.5833 28.8555 49.5833 26.25C49.5833 18.1959 43.0541 11.6667 35 11.6667ZM35 17.5C39.8325 17.5 43.75 21.4175 43.75 26.25C43.75 31.0825 39.8325 35 35 35C30.1675 35 26.25 31.0825 26.25 26.25C26.25 21.4175 30.1675 17.5 35 17.5ZM35 23.3333C33.3891 23.3333 32.0833 24.6392 32.0833 26.25C32.0833 27.8608 33.3891 29.1667 35 29.1667C36.6108 29.1667 37.9166 27.8608 37.9166 26.25C37.9166 24.6392 36.6108 23.3333 35 23.3333Z" fill="#C0B7E8"/>
</svg>

<svg width="70" height="70" fill="none" xmlns="http://www.w3.org/2000/svg"><path fill-rule="evenodd" clip-rule="evenodd" d="M35 5.833c11.276 0 20.417 9.141 20.417 20.417 0 3.41-.834 6.622-2.313 9.448L35 67.083 17.315 36.46a20.3 20.3 0 0 1-2.732-10.21c0-11.276 9.141-20.417 20.417-20.417zm0 5.834c-8.054 0-14.583 6.529-14.583 14.583 0 2.316.534 4.538 1.545 6.544l.49.895L35 55.417l12.637-21.88a14.465 14.465 0 0 0 1.946-7.287c0-8.054-6.529-14.583-14.583-14.583zm0 5.833A8.75 8.75 0 1 1 35 35a8.75 8.75 0 0 1 0-17.5zm0 5.833a2.917 2.917 0 1 0 0 5.834 2.917 2.917 0 0 0 0-5.834z" fill="#C0B7E8"/></svg>
